Numix-GalliumOS/64/mimetypes/wps-office-xls.svg

<svg xmlns="http://www.w3.org/2000/svg" xmlns:xlink="http://www.w3.org/1999/xlink" width="64px" height="64px" viewBox="0 0 64 64" version="1.1">
<g id="surface1">
<path style=" stroke:none;fill-rule:nonzero;fill:rgb(12.54902%,44.313725%,27.058824%);fill-opacity:1;" d="M 10.671875 0 C 9.296875 0 8 1.355469 8 2.789062 L 8 61.210938 C 8 62.566406 9.375 64 10.671875 64 L 53.328125 64 C 54.625 64 56 62.566406 56 61.210938 L 56 18 L 38 0 Z M 10.671875 0 "/>
<path style=" stroke:none;fill-rule:nonzero;fill:rgb(0%,0%,0%);fill-opacity:0.196078;" d="M 42 18 L 56 32 L 56 18 Z M 42 18 "/>
<path style=" stroke:none;fill-rule:nonzero;fill:rgb(100%,100%,100%);fill-opacity:1;" d="M 44 22 L 44 42 L 20 42 L 20 22 Z M 42 24 L 30 24 L 30 28 L 42 28 Z M 28 24 L 22 24 L 22 28 L 28 28 Z M 42 30 L 30 30 L 30 34 L 42 34 Z M 28 30 L 22 30 L 22 34 L 28 34 Z M 42 36 L 30 36 L 30 40 L 42 40 Z M 28 36 L 22 36 L 22 40 L 28 40 Z M 28 36 "/>
<path style=" stroke:none;fill-rule:nonzero;fill:rgb(0%,0%,0%);fill-opacity:0.196078;" d="M 8 48 L 8 61.335938 C 8 62.632812 9.375 64 10.664062 64 L 53.335938 64 C 54.625 64 56 62.632812 56 61.335938 L 56 48 Z M 8 48 "/>
<path style=" stroke:none;fill-rule:nonzero;fill:rgb(100%,100%,100%);fill-opacity:0.392157;" d="M 38 0 L 55.984375 18 L 40.757812 18 C 39.410156 18 38 16.574219 38 15.226562 Z M 38 0 "/>
<path style=" stroke:none;fill-rule:nonzero;fill:rgb(100%,100%,100%);fill-opacity:1;" d="M 24.800781 61.984375 C 24.546875 61.382812 24.238281 60.714844 23.871094 59.984375 C 23.519531 59.25 23.144531 58.523438 22.75 57.796875 C 22.367188 58.488281 21.988281 59.207031 21.605469 59.96875 C 21.226562 60.707031 20.902344 61.382812 20.625 61.984375 L 18 61.984375 C 18.132812 61.660156 18.324219 61.28125 18.578125 60.832031 C 18.835938 60.386719 19.121094 59.902344 19.421875 59.382812 C 19.738281 58.867188 20.066406 58.332031 20.410156 57.796875 C 20.75 57.234375 21.078125 56.707031 21.386719 56.199219 L 18.199219 51.039062 L 20.820312 51.039062 L 22.75 54.542969 L 24.78125 51.039062 L 27.226562 51.039062 L 24.113281 56.148438 C 24.464844 56.65625 24.816406 57.183594 25.152344 57.738281 C 25.492188 58.296875 25.8125 58.832031 26.09375 59.367188 C 26.40625 59.886719 26.664062 60.371094 26.890625 60.832031 C 27.109375 61.28125 27.292969 61.660156 27.417969 61.984375 L 24.800781 61.984375 "/>
<path style=" stroke:none;fill-rule:nonzero;fill:rgb(100%,100%,100%);fill-opacity:1;" d="M 36.699219 61.984375 L 29.03125 61.984375 L 29.03125 51.039062 L 31.480469 51.039062 L 31.480469 60.179688 L 36.699219 60.179688 L 36.699219 61.984375 "/>
<path style=" stroke:none;fill-rule:nonzero;fill:rgb(100%,100%,100%);fill-opacity:1;" d="M 42.0625 60.386719 C 42.460938 60.386719 42.796875 60.355469 43.066406 60.289062 C 43.339844 60.203125 43.558594 60.09375 43.707031 59.96875 C 43.867188 59.828125 43.976562 59.667969 44.027344 59.507812 C 44.09375 59.324219 44.125 59.148438 44.125 58.972656 C 44.125 58.75 44.050781 58.554688 43.910156 58.371094 C 43.765625 58.195312 43.582031 58.046875 43.355469 57.914062 C 43.132812 57.777344 42.878906 57.652344 42.613281 57.542969 C 42.335938 57.425781 42.0625 57.320312 41.785156 57.226562 C 41.417969 57.109375 41.03125 56.976562 40.640625 56.816406 C 40.246094 56.667969 39.886719 56.472656 39.550781 56.238281 C 39.242188 55.996094 38.976562 55.710938 38.765625 55.371094 C 38.558594 55.019531 38.449219 54.582031 38.449219 54.066406 C 38.449219 53.035156 38.816406 52.234375 39.550781 51.65625 C 40.304688 51.078125 41.324219 50.796875 42.628906 50.796875 C 43.375 50.796875 44.027344 50.871094 44.578125 51.019531 C 45.148438 51.171875 45.617188 51.347656 46 51.53125 L 45.289062 53.210938 C 44.964844 53.042969 44.59375 52.910156 44.183594 52.785156 C 43.792969 52.667969 43.332031 52.609375 42.804688 52.609375 C 41.515625 52.609375 40.875 53.027344 40.875 53.863281 C 40.875 54.082031 40.941406 54.265625 41.074219 54.433594 C 41.199219 54.582031 41.367188 54.726562 41.566406 54.859375 C 41.777344 54.976562 42.003906 55.085938 42.253906 55.175781 C 42.519531 55.269531 42.773438 55.363281 43.023438 55.445312 C 43.40625 55.570312 43.800781 55.722656 44.203125 55.878906 C 44.628906 56.039062 45.003906 56.246094 45.347656 56.515625 C 45.699219 56.773438 45.992188 57.109375 46.21875 57.511719 C 46.433594 57.894531 46.550781 58.390625 46.550781 58.992188 C 46.550781 60.019531 46.175781 60.8125 45.421875 61.382812 C 44.6875 61.933594 43.566406 62.210938 42.0625 62.210938 C 41.050781 62.210938 40.238281 62.117188 39.636719 61.925781 C 39.035156 61.726562 38.574219 61.542969 38.273438 61.382812 L 38.984375 59.609375 C 39.335938 59.800781 39.761719 59.976562 40.246094 60.144531 C 40.746094 60.304688 41.351562 60.386719 42.0625 60.386719 "/>
</g>
</svg>

<svg xmlns="http://www.w3.org/2000/svg" viewBox="0 0 64 64">
 <g>
  <path d="m 10.672 0 c -1.375 0 -2.672 1.355 -2.672 2.789 l 0 58.42 c 0 1.355 1.375 2.789 2.672 2.789 l 42.656 0 c 1.297 0 2.672 -1.434 2.672 -2.789 l 0 -43.21 l -18 -18 m -27.328 0" style="fill:#207045;fill-opacity:1;stroke:none;fill-rule:nonzero"/>
  <path d="m 42 18 l 14 14 l 0 -14 m -14 0" style="fill:#000;fill-opacity:0.196;stroke:none;fill-rule:nonzero"/>
  <path d="m 44 22 l 0 20 l -24 0 l 0 -20 m 22 2 l -12 0 l 0 4 l 12 0 m -14 -4 l -6 0 l 0 4 l 6 0 m 14 2 l -12 0 l 0 4 l 12 0 m -14 -4 l -6 0 l 0 4 l 6 0 m 14 2 l -12 0 l 0 4 l 12 0 m -14 -4 l -6 0 l 0 4 l 6 0 m 0 -4" style="fill:#fff;fill-opacity:1;stroke:none;fill-rule:nonzero"/>
  <path d="m 8 48 l 0 13.336 c 0 1.297 1.375 2.664 2.664 2.664 l 42.672 0 c 1.289 0 2.664 -1.367 2.664 -2.664 l 0 -13.336 m -48 0" style="fill:#000;fill-opacity:0.196;stroke:none;fill-rule:nonzero"/>
  <path d="m 38 0 l 17.984 18 l -15.227 0 c -1.348 0 -2.758 -1.426 -2.758 -2.773 m 0 -15.227" style="fill:#fff;fill-opacity:0.392;stroke:none;fill-rule:nonzero"/>
  <path d="m 24.801 61.984 c -0.254 -0.602 -0.563 -1.27 -0.93 -2 c -0.352 -0.734 -0.727 -1.461 -1.121 -2.188 c -0.383 0.691 -0.762 1.41 -1.145 2.172 c -0.379 0.738 -0.703 1.414 -0.98 2.02 l -2.625 0 c 0.133 -0.324 0.324 -0.703 0.578 -1.152 c 0.258 -0.445 0.543 -0.93 0.844 -1.449 c 0.316 -0.516 0.645 -1.051 0.988 -1.586 c 0.34 -0.563 0.668 -1.09 0.977 -1.598 l -3.188 -5.16 l 2.621 0 l 1.93 3.504 l 2.031 -3.504 l 2.445 0 l -3.113 5.109 c 0.352 0.508 0.703 1.035 1.039 1.59 c 0.34 0.559 0.66 1.094 0.941 1.629 c 0.313 0.52 0.57 1 0.797 1.465 c 0.219 0.449 0.402 0.828 0.527 1.152 l -2.617 0" style="fill:#fff;fill-opacity:1;stroke:none;fill-rule:nonzero"/>
  <path d="m 36.699 61.984 l -7.668 0 l 0 -10.945 l 2.449 0 l 0 9.141 l 5.219 0 l 0 1.805" style="fill:#fff;fill-opacity:1;stroke:none;fill-rule:nonzero"/>
  <path d="m 42.06 60.39 c 0.398 0 0.734 -0.031 1 -0.098 c 0.273 -0.086 0.492 -0.195 0.641 -0.32 c 0.16 -0.141 0.27 -0.301 0.32 -0.461 c 0.066 -0.184 0.098 -0.359 0.098 -0.535 c 0 -0.223 -0.074 -0.418 -0.215 -0.602 c -0.145 -0.176 -0.328 -0.324 -0.555 -0.457 c -0.223 -0.137 -0.477 -0.262 -0.742 -0.371 c -0.277 -0.117 -0.551 -0.223 -0.828 -0.316 c -0.367 -0.117 -0.754 -0.25 -1.145 -0.41 c -0.395 -0.148 -0.754 -0.344 -1.09 -0.578 c -0.309 -0.242 -0.574 -0.527 -0.785 -0.867 c -0.207 -0.352 -0.316 -0.789 -0.316 -1.305 c 0 -1.031 0.367 -1.832 1.102 -2.41 c 0.754 -0.578 1.773 -0.859 3.078 -0.859 c 0.746 0 1.398 0.074 1.949 0.223 c 0.57 0.152 1.039 0.328 1.422 0.512 l -0.711 1.68 c -0.324 -0.168 -0.695 -0.301 -1.105 -0.426 c -0.391 -0.117 -0.852 -0.176 -1.379 -0.176 c -1.289 0 -1.93 0.418 -1.93 1.254 c 0 0.219 0.066 0.402 0.199 0.57 c 0.125 0.148 0.293 0.293 0.492 0.426 c 0.211 0.117 0.438 0.227 0.688 0.316 c 0.266 0.094 0.52 0.188 0.77 0.27 c 0.383 0.125 0.777 0.277 1.18 0.434 c 0.426 0.16 0.801 0.367 1.145 0.637 c 0.352 0.258 0.645 0.594 0.871 0.996 c 0.215 0.383 0.332 0.879 0.332 1.48 c 0 1.027 -0.375 1.82 -1.129 2.391 c -0.734 0.551 -1.855 0.828 -3.359 0.828 c -1.012 0 -1.824 -0.094 -2.426 -0.285 c -0.602 -0.199 -1.063 -0.383 -1.363 -0.543 l 0.711 -1.773 c 0.352 0.191 0.777 0.367 1.262 0.535 c 0.5 0.16 1.105 0.242 1.816 0.242" style="fill:#fff;fill-opacity:1;stroke:none;fill-rule:nonzero"/>
 </g>
</svg>
